!!!OTL: 1305. Der Schwatzhafte.
!!!ARE: Europa, Mitteleuropa, Deutschland
!!!SCT: E1305
!!!TXL: @@DE
!!!YEM: Copyright 1995, estate of Helmut Schaffrath.
**kern	**text
*ICvox	*
*M2/4	*
*k[f#]	*
*G:	*
!LO:TX:a:t=Einer.	!
!LO:TX:a:t=Mel. nach Commersbüchern.	!
{8d	Es
=1	=1
(4g	wa-
8f#)	.
8e	-ren
=2	=2
4d	drei
4f#	Ge-
=3	=3
8a	-ſel-
8g	-len
4r	.
=4	=4
!LO:TX:a:t=Alle.	!
8a	(ſel-
8g	-len)
8r}	.
!LO:TX:a:t=Einer.	!
{8d	Die
=5	=5
(4g	thä-
8f#)	-ten
8e	ſich
=6	=6
4d	was
4f#	er-
=7	=7
8a	-ʒäh-
8g	-len.
4r	.
=8	=8
!LO:TX:a:t=Alle.	!
8a	(ʒäh-
8g	-len)
8r}	.
!LO:TX:a:t=Einer.	!
{8dd	Sie
=9	=9
8b	a-
8b	-ßen
8b	und
8b	ſie
=10	=10
[4b	tranken
8b]}	.
{8dd	und
=11	=11
8ee	hiel-
8dd	-ten
8cc	ei-
8b	-nen
=12	=12
4a	Rath,
8r}	.
{8g	wer
=13	=13
8f#	wohl
8a	von
8a	ih-
8a	-nen
=14	=14
4.dd}	All'n
{8cc	das
=15	=15
8b/	ſchön-
8b/	-ſte
8a	Mäd-
8a	-chen
=16	=16
4g	hat.
8r}	.
==	==
!!!AGN: Staende -, Soldaten - Lied, Reiter
!!!ONB: ESAC (Essen Associative Code) Database: ERK3
!!!AMT: simple duple
!!!AIN: vox
!!!EED: Helmut Schaffrath
!!!EEV: 1.0
!!!GTL: Staendelieder (Berufslieder). 1. Soldaten- und Kriegslieder. Landsknechts- und Reiterlieder.
!!!URL-scan: https://rosdok.uni-rostock.de/mcrviewer/recordIdentifier/rosdok_ppn745177999/iview2/phys_0195.iview2?x=-128.77276441889285&y=183.5822703341255&scale=0.5870222003877487&rotation=0&layout=singlePageLayout
!!!ENC: Anna Maria Matuszewska
!!!EEV: 2024/12/27
*-	*-
